tools/download-figma-icons/icons/outlined-large/goal.svg

<svg width="64" height="64" viewBox="0 0 64 64" fill="none" xmlns="http://www.w3.org/2000/svg">
<path d="M61.2113 61.8009H2.57132C1.62132 61.8009 0.751321 61.2809 0.301321 60.4409C-0.148679 59.6009 -0.0886787 58.5809 0.441321 57.7909L17.1513 32.9709C17.6313 32.2609 18.4313 31.8309 19.2813 31.8309C20.1313 31.8309 20.9413 32.2509 21.4113 32.9709L22.7313 34.9309L33.3413 19.0809C33.8213 18.3609 34.6213 17.9409 35.4813 17.9409C36.3413 17.9409 37.1413 18.3709 37.6213 19.0909L63.3413 57.8009C63.8713 58.5909 63.9113 59.6009 63.4713 60.4409C63.0213 61.2809 62.1513 61.8009 61.2013 61.8009H61.2113ZM3.38132 58.8009H60.4113L35.4913 21.2909L24.5613 37.6209L26.9213 41.1209C27.3813 41.8109 27.2013 42.7409 26.5113 43.2009C25.8213 43.6609 24.8913 43.4809 24.4313 42.7909L19.3013 35.1709L3.38132 58.8009Z" fill="black"/>
<path d="M35.3914 20.971C34.5614 20.971 33.8914 20.301 33.8914 19.471V12.541C33.8914 11.711 34.5614 11.041 35.3914 11.041C36.2214 11.041 36.8914 11.711 36.8914 12.541V19.471C36.8914 20.301 36.2214 20.971 35.3914 20.971Z" fill="black"/>
<path d="M33.8914 15.031V5.50097C33.8914 4.65097 34.3214 3.87097 35.0314 3.40097C35.7414 2.94097 36.6314 2.87097 37.4114 3.22097L42.9214 5.69097C43.8014 6.08097 44.3714 6.93097 44.4014 7.89097C44.4314 8.85097 43.9214 9.73097 43.0714 10.181L33.8914 15.041V15.031ZM36.8914 6.27097V10.051L40.7614 8.00097L36.8914 6.27097Z" fill="black"/>
<path d="M39.0514 33.4809C38.2614 33.4809 37.5214 33.1109 37.0514 32.4809L35.4014 30.3609L33.7314 32.5109C33.2714 33.1309 32.5314 33.5409 31.7214 33.4909C30.9314 33.4909 30.1814 33.0909 29.7114 32.4409L27.9114 29.9209C27.4314 29.2509 27.5814 28.3109 28.2614 27.8309C28.9314 27.3509 29.8714 27.5009 30.3514 28.1809L31.7714 30.1609L33.8314 27.5109C34.5914 26.5309 36.2214 26.5309 36.9914 27.5109L39.0514 30.1609L40.4714 28.1809C40.9514 27.5109 41.8914 27.3509 42.5614 27.8309C43.2314 28.3109 43.3914 29.2509 42.9114 29.9209L41.1014 32.4409C40.6414 33.0909 39.8914 33.4809 39.0914 33.4809H39.0714H39.0514ZM31.3514 30.6709C31.3514 30.6709 31.3514 30.6709 31.3414 30.6809H31.3514V30.6709Z" fill="black"/>
</svg>

<svg width="64" height="64" viewBox="0 0 64 64" fill="none" xmlns="http://www.w3.org/2000/svg"><path d="M61.211 61.8H2.571c-.95 0-1.82-.52-2.27-1.36-.45-.84-.39-1.86.14-2.65l16.71-24.82a2.58 2.58 0 0 1 2.13-1.14c.85 0 1.66.42 2.13 1.14l1.32 1.96 10.61-15.85a2.56 2.56 0 0 1 2.14-1.14c.86 0 1.66.43 2.14 1.15l25.72 38.71c.53.79.57 1.8.13 2.64-.45.84-1.32 1.36-2.27 1.36h.01Zm-57.83-3h57.03l-24.92-37.51-10.93 16.33 2.36 3.5c.46.69.28 1.62-.41 2.08-.69.46-1.62.28-2.08-.41l-5.13-7.62L3.381 58.8Z" fill="currentColor"/><path d="M35.391 20.971c-.83 0-1.5-.67-1.5-1.5v-6.93c0-.83.67-1.5 1.5-1.5s1.5.67 1.5 1.5v6.93c0 .83-.67 1.5-1.5 1.5Z" fill="currentColor"/><path d="M33.891 15.031v-9.53c0-.85.43-1.63 1.14-2.1.71-.46 1.6-.53 2.38-.18l5.51 2.47c.88.39 1.45 1.24 1.48 2.2.03.96-.48 1.84-1.33 2.29l-9.18 4.86v-.01Zm3-8.76v3.78l3.87-2.05-3.87-1.73Zm2.16 27.209c-.79 0-1.53-.37-2-1l-1.65-2.12-1.67 2.15c-.46.62-1.2 1.03-2.01.98-.79 0-1.54-.4-2.01-1.05l-1.8-2.52c-.48-.67-.33-1.61.35-2.09.67-.48 1.61-.33 2.09.35l1.42 1.98 2.06-2.65c.76-.98 2.39-.98 3.16 0l2.06 2.65 1.42-1.98c.48-.67 1.42-.83 2.09-.35.67.48.83 1.42.35 2.09l-1.81 2.52c-.46.65-1.21 1.04-2.01 1.04h-.04Zm-7.7-2.81-.01.01h.01v-.01Z" fill="currentColor"/></svg>
